X:187
T:Reel 187
M:4/4
K:Gmaj
L:1/8
Bc|d3e dcBc|dBgB d2de| (3ded Be dBGB|cAAB A2dc| (3BAG dG eGdB|GBdB g2ag|fefd ecBA| (3Bcd ef g2|fe| (3ded Bd edBd|gfaf g2ed|c2ec B2dB|ABAG F2de| (3ded Bd edBd|gfge d2 (3def |gefd ecdB|ABcA G2|
